assets/cross.svg

<svg fill="none" height="14" viewBox="0 0 14 14" width="14" xmlns="http://www.w3.org/2000/svg"><path d="m1.81591.354406 5.184 5.184004 5.16269-5.16267c.1828-.194588.437-.3062854.704-.3093338.5891 0 1.0666.4775628 1.0666 1.0666638.0051.26431-.0991.519-.288.704l-5.21595 5.16267 5.21595 5.21596c.1758.172.2789.4049.288.6507 0 .5891-.4775 1.0667-1.0666 1.0667-.2749.0114-.5419-.0931-.736-.288l-5.13069-5.18403-5.17333 5.17333c-.18204.188-.43164.2956-.69333.2987-.589107 0-1.06667-.4776-1.06667-1.0667-.0050263-.2643.099163-.519.288-.704l5.216-5.16266-5.216-5.216c-.175803-.17199-.278891-.40489-.288-.65067 0-.589101.477563-1.0666637 1.06667-1.0666637.256.0031999.50133.1066667.68266.2879997z" fill="#191919"/></svg>

<svg width="14" height="14" viewBox="0 0 14 14" fill="none" xmlns="http://www.w3.org/2000/svg">
<path d="M1.81591 0.354406L6.99991 5.53841L12.1626 0.37574C12.3454 0.181152 12.5996 0.0694546 12.8666 0.0664062C13.4557 0.0664062 13.9332 0.543969 13.9332 1.13307C13.9383 1.39738 13.8341 1.65207 13.6452 1.83707L8.42925 6.99974L13.6452 12.2157C13.821 12.3877 13.9241 12.6206 13.9332 12.8664C13.9332 13.4555 13.4557 13.9331 12.8666 13.9331C12.5917 13.9445 12.3247 13.84 12.1306 13.6451L6.99991 8.46107L1.82658 13.6344C1.64454 13.8224 1.39494 13.93 1.13325 13.9331C0.544143 13.9331 0.06658 13.4555 0.06658 12.8664C0.0615537 12.6021 0.165743 12.3474 0.35458 12.1624L5.57058 6.99974L0.35458 1.78374C0.178777 1.61175 0.075689 1.37885 0.06658 1.13307C0.06658 0.543969 0.544143 0.0664063 1.13325 0.0664063C1.38925 0.0696062 1.63458 0.173073 1.81591 0.354406Z" fill="#191919"/>
</svg>
